dist/img/icons/panorama.svg

<svg width="81" height="81" viewBox="0 0 81 81" fill="none" xmlns="http://www.w3.org/2000/svg">
<g clip-path="url(#clip0_115_834)">
<path d="M58.2157 51.8908H22.7845C22.2179 51.8956 21.6629 51.7304 21.1911 51.4165C20.7194 51.1026 20.3526 50.6545 20.1381 50.13C19.927 49.622 19.8755 49.0618 19.9905 48.5239C20.1055 47.9859 20.3814 47.4957 20.7817 47.1184L32.6469 35.6117C33.1862 35.0962 33.9035 34.8086 34.6495 34.8086C35.3954 34.8086 36.1127 35.0962 36.652 35.6117L43.9312 42.6713C44.1145 42.8463 44.3581 42.944 44.6115 42.944C44.8649 42.944 45.1085 42.8463 45.2918 42.6713L48.459 39.5993C48.9984 39.0842 49.7156 38.7967 50.4615 38.7967C51.2074 38.7967 51.9246 39.0842 52.4641 39.5993L60.216 47.1191C60.6163 47.4964 60.8923 47.9866 61.0072 48.5245C61.1222 49.0625 61.0707 49.6226 60.8596 50.1306C60.6452 50.6546 60.2788 51.1023 59.8075 51.416C59.3363 51.7298 58.7818 51.8951 58.2157 51.8908ZM34.6491 36.7011C34.3953 36.7001 34.1511 36.798 33.9682 36.9741L22.103 48.4812C21.9756 48.5963 21.8873 48.7483 21.8504 48.916C21.8135 49.0837 21.8298 49.2588 21.897 49.4168C21.968 49.5922 22.0913 49.7415 22.25 49.8445C22.4088 49.9475 22.5954 49.9991 22.7845 49.9923H58.2157C58.4046 49.9987 58.5908 49.947 58.7493 49.844C58.9077 49.7411 59.0307 49.5919 59.1016 49.4168C59.1689 49.2588 59.1852 49.0837 59.1483 48.916C59.1113 48.7483 59.023 48.5963 58.8957 48.4812L51.1437 40.9618C50.9602 40.7866 50.7163 40.6889 50.4626 40.6889C50.209 40.6889 49.965 40.7866 49.7816 40.9618L46.6144 44.0338C46.0752 44.5495 45.3578 44.8374 44.6117 44.8374C43.8655 44.8374 43.1482 44.5495 42.609 44.0338L35.3316 36.9741C35.1484 36.7976 34.9035 36.6997 34.6491 36.7011Z" fill="white"/>
<path d="M53.1563 36.0703C52.4679 36.0703 51.795 35.8662 51.2226 35.4837C50.6502 35.1013 50.2041 34.5577 49.9407 33.9218C49.6773 33.2858 49.6084 32.586 49.7427 31.9108C49.877 31.2357 50.2084 30.6155 50.6952 30.1288C51.1819 29.642 51.8021 29.3105 52.4772 29.1763C53.1524 29.042 53.8522 29.1109 54.4882 29.3743C55.1241 29.6377 55.6677 30.0838 56.0502 30.6562C56.4326 31.2286 56.6367 31.9015 56.6367 32.5898C56.6356 33.5126 56.2686 34.3972 55.6161 35.0497C54.9636 35.7022 54.079 36.0692 53.1563 36.0703ZM53.1563 31.0078C52.8434 31.0078 52.5375 31.1006 52.2773 31.2744C52.0172 31.4483 51.8144 31.6953 51.6946 31.9844C51.5749 32.2735 51.5436 32.5916 51.6046 32.8985C51.6657 33.2054 51.8163 33.4873 52.0376 33.7085C52.2588 33.9298 52.5407 34.0804 52.8476 34.1415C53.1545 34.2025 53.4726 34.1712 53.7617 34.0515C54.0507 33.9317 54.2978 33.7289 54.4717 33.4688C54.6455 33.2086 54.7383 32.9027 54.7383 32.5898C54.7378 32.1704 54.5709 31.7683 54.2744 31.4717C53.9778 31.1752 53.5757 31.0083 53.1563 31.0078Z" fill="white"/>
<path d="M63.0792 62.0974C55.6544 60.5411 48.0863 59.7715 40.5001 59.8016C33.021 59.7743 25.5591 60.5211 18.2337 62.03L17.8369 60.1737C25.2927 58.6368 32.8876 57.8759 40.5001 57.9032C48.2222 57.8734 55.9259 58.6575 63.4836 60.2424L63.0792 62.0974Z" fill="white"/>
<path d="M80.9997 70.8746H79.1013C79.0638 70.0326 78.7308 69.2307 78.1609 68.6097L79.6243 67.4004C80.4803 68.3587 80.9678 69.5901 80.9997 70.8746ZM75.9815 66.7471C75.1332 66.2016 74.2463 65.7187 73.3278 65.302L74.1239 63.5782C75.127 64.0344 76.0954 64.5631 77.0215 65.1603L75.9815 66.7471ZM70.476 64.1481C69.554 63.8193 68.5596 63.5017 67.5195 63.2039L68.0422 61.3789C69.1205 61.6877 70.1539 62.0177 71.1133 62.3598L70.476 64.1481Z" fill="white"/>
<path d="M1.89844 70.8746H0C0.0319442 69.5901 0.519435 68.3587 1.37542 67.4004L2.8388 68.6097C2.26887 69.2307 1.93593 70.0326 1.89844 70.8746ZM5.0182 66.7471L3.97818 65.159C4.90427 64.5619 5.87273 64.0331 6.87582 63.577L7.6719 65.3008C6.75341 65.7178 5.8665 66.2012 5.0182 66.7471ZM10.5253 64.1481L9.88801 62.3598C10.8474 62.0177 11.8814 61.6877 12.9591 61.3789L13.4818 63.2039C12.4417 63.5023 11.4473 63.8187 10.5253 64.1481Z" fill="white"/>
<path d="M66.1289 81C65.8772 81 65.6357 80.9 65.4577 80.722C65.2797 80.544 65.1797 80.3025 65.1797 80.0508V44.2969C65.1797 44.0863 65.2498 43.8817 65.3788 43.7153C65.5079 43.5489 65.6886 43.4301 65.8926 43.3777C74.6573 41.1249 79.1016 38.5598 79.1016 35.7539C79.1016 35.5022 79.2016 35.2607 79.3796 35.0827C79.5576 34.9047 79.799 34.8047 80.0508 34.8047C80.3025 34.8047 80.544 34.9047 80.722 35.0827C80.9 35.2607 81 35.5022 81 35.7539V70.875C81 74.9592 75.8024 78.5444 66.3653 80.9699C66.2881 80.9899 66.2086 81 66.1289 81ZM67.0781 45.0297V78.8133C74.5282 76.725 79.1016 73.7255 79.1016 70.875V39.6878C76.9706 41.7023 73.0149 43.4505 67.0781 45.0297Z" fill="white"/>
<path d="M81 35.7539H79.1016C79.1016 33.0891 75.0225 30.2557 68.1906 28.1744C60.794 25.9209 50.9601 24.6797 40.5 24.6797C30.0399 24.6797 20.206 25.9209 12.8094 28.1744C5.97755 30.2557 1.89844 33.0891 1.89844 35.7539H0C0 27.6337 20.592 22.7812 40.5 22.7812C60.408 22.7812 81 27.6337 81 35.7539Z" fill="white"/>
<path d="M14.8711 81C14.7914 81 14.7119 80.9899 14.6347 80.9699C5.1976 78.5444 0 74.9592 0 70.875V35.7539C0 35.5022 0.100007 35.2607 0.27802 35.0827C0.456033 34.9047 0.69747 34.8047 0.949219 34.8047C1.20097 34.8047 1.4424 34.9047 1.62042 35.0827C1.79843 35.2607 1.89844 35.5022 1.89844 35.7539C1.89844 38.593 6.58948 41.3619 15.1074 43.5514C15.3114 43.6039 15.4921 43.7226 15.6212 43.889C15.7502 44.0554 15.8203 44.26 15.8203 44.4706V80.0508C15.8203 80.3025 15.7203 80.544 15.5423 80.722C15.3643 80.9 15.1228 81 14.8711 81ZM1.89844 39.7438V70.875C1.89844 73.7255 6.47177 76.7247 13.9219 78.8133V45.2031C8.03387 43.6324 4.04779 41.8267 1.89844 39.7438Z" fill="white"/>
<path d="M50.7832 4.42969C49.6507 4.43094 48.565 4.88138 47.7642 5.68216C46.9634 6.48295 46.513 7.56869 46.5117 8.70117V14.0801C46.5117 15.2129 46.9617 16.2994 47.7628 17.1005C48.5639 17.9015 49.6503 18.3516 50.7832 18.3516C51.9161 18.3516 53.0025 17.9015 53.8036 17.1005C54.6047 16.2994 55.0547 15.2129 55.0547 14.0801V8.70117C55.0534 7.56869 54.603 6.48295 53.8022 5.68216C53.0014 4.88138 51.9157 4.43094 50.7832 4.42969ZM53.1562 14.0801C53.1562 14.7094 52.9062 15.313 52.4612 15.7581C52.0162 16.2031 51.4126 16.4531 50.7832 16.4531C50.1538 16.4531 49.5502 16.2031 49.1052 15.7581C48.6602 15.313 48.4102 14.7094 48.4102 14.0801V8.70117C48.4102 8.0718 48.6602 7.46821 49.1052 7.02317C49.5502 6.57814 50.1538 6.32812 50.7832 6.32812C51.4126 6.32812 52.0162 6.57814 52.4612 7.02317C52.9062 7.46821 53.1562 8.0718 53.1562 8.70117V14.0801Z" fill="white"/>
<path d="M40.6582 9.80859C39.8129 9.80781 38.9866 10.0593 38.2852 10.5309V8.22656C38.2857 7.72322 38.4858 7.24064 38.8418 6.88472C39.1977 6.5288 39.6803 6.32863 40.1836 6.32812H41.1328C41.5254 6.32852 41.9083 6.45037 42.2289 6.67696C42.5496 6.90355 42.7922 7.22379 42.9237 7.59375L44.7133 6.96094C44.4507 6.22107 43.9656 5.58058 43.3246 5.12738C42.6835 4.67417 41.9179 4.43046 41.1328 4.42969H40.1836C39.1769 4.43078 38.2118 4.83115 37.5 5.54297C36.7882 6.25479 36.3878 7.2199 36.3867 8.22656V14.5547H36.4146C36.5062 15.3742 36.8331 16.1497 37.3558 16.7875C37.8785 17.4254 38.5746 17.8982 39.3602 18.1491C40.1457 18.4 40.9871 18.4181 41.7827 18.2013C42.5783 17.9844 43.2942 17.542 43.8438 16.9272C44.3935 16.3125 44.7535 15.5518 44.8803 14.7369C45.0071 13.9221 44.8953 13.088 44.5585 12.3353C44.2216 11.5826 43.6741 10.9435 42.982 10.4951C42.2899 10.0468 41.4828 9.80832 40.6582 9.80859ZM40.6582 16.4531C40.1889 16.4531 39.7301 16.3139 39.3398 16.0532C38.9496 15.7924 38.6454 15.4218 38.4658 14.9882C38.2862 14.5546 38.2392 14.0774 38.3308 13.6171C38.4223 13.1568 38.6483 12.734 38.9802 12.4021C39.3121 12.0702 39.7349 11.8442 40.1952 11.7526C40.6556 11.6611 41.1327 11.7081 41.5663 11.8877C42 12.0673 42.3706 12.3714 42.6313 12.7617C42.8921 13.1519 43.0313 13.6107 43.0313 14.0801C43.0306 14.7092 42.7804 15.3124 42.3355 15.7573C41.8906 16.2022 41.2874 16.4525 40.6582 16.4531Z" fill="white"/>
<path d="M34.4883 8.46387C34.487 7.39432 34.0616 6.36894 33.3053 5.61266C32.549 4.85638 31.5236 4.43094 30.4541 4.42969H29.7422C28.7355 4.43078 27.7704 4.83115 27.0586 5.54297C26.3468 6.25479 25.9464 7.2199 25.9453 8.22656H27.8437C27.8443 7.72322 28.0444 7.24064 28.4003 6.88472C28.7563 6.5288 29.2388 6.32863 29.7422 6.32812H30.4541C31.0203 6.32879 31.5632 6.55403 31.9636 6.95441C32.3639 7.35479 32.5892 7.89764 32.5898 8.46387C32.5898 9.72063 31.5169 10.2832 30.4541 10.2832H29.2676V12.1816H30.4541C31.0205 12.1816 31.5638 12.4067 31.9643 12.8072C32.3648 13.2077 32.5898 13.7509 32.5898 14.3174C32.5898 14.8838 32.3648 15.4271 31.9643 15.8276C31.5638 16.2281 31.0205 16.4531 30.4541 16.4531H29.7422C29.2388 16.4526 28.7563 16.2524 28.4003 15.8965C28.0444 15.5406 27.8443 15.058 27.8437 14.5547V14.0801H25.9453V14.5547C25.9464 15.5613 26.3468 16.5265 27.0586 17.2383C27.7704 17.9501 28.7355 18.3505 29.7422 18.3516H30.4541C31.2715 18.3519 32.0697 18.1037 32.7429 17.6401C33.4161 17.1764 33.9325 16.5191 34.2236 15.7553C34.5148 14.9915 34.567 14.1573 34.3732 13.3632C34.1795 12.5691 33.749 11.8526 33.1388 11.3087C33.5672 10.9701 33.9118 10.5373 34.1459 10.0439C34.3799 9.55055 34.4971 9.00987 34.4883 8.46387Z" fill="white"/>
<path d="M56.9531 5.0625C56.4525 5.0625 55.9631 4.91405 55.5468 4.63591C55.1306 4.35777 54.8061 3.96244 54.6146 3.49992C54.423 3.03739 54.3728 2.52844 54.4705 2.03743C54.5682 1.54641 54.8093 1.09539 55.1633 0.741387C55.5173 0.387385 55.9683 0.146307 56.4593 0.0486384C56.9503 -0.0490304 57.4593 0.00109674 57.9218 0.192681C58.3843 0.384265 58.7797 0.708702 59.0578 1.12496C59.3359 1.54123 59.4844 2.03062 59.4844 2.53125C59.4836 3.20235 59.2167 3.84574 58.7422 4.32028C58.2676 4.79482 57.6242 5.06175 56.9531 5.0625ZM56.9531 1.89844C56.828 1.89844 56.7056 1.93555 56.6016 2.00509C56.4975 2.07462 56.4164 2.17345 56.3685 2.28908C56.3206 2.40472 56.3081 2.53195 56.3325 2.65471C56.3569 2.77746 56.4172 2.89022 56.5057 2.97872C56.5942 3.06722 56.7069 3.12749 56.8297 3.1519C56.9524 3.17632 57.0797 3.16379 57.1953 3.11589C57.3109 3.068 57.4098 2.98689 57.4793 2.88282C57.5488 2.77876 57.5859 2.65641 57.5859 2.53125C57.5859 2.36342 57.5193 2.20246 57.4006 2.08379C57.2819 1.96511 57.121 1.89844 56.9531 1.89844Z" fill="white"/>
</g>
<defs>
<clipPath id="clip0_115_834">
<rect width="81" height="81" fill="white"/>
</clipPath>
</defs>
</svg>

<svg width="81" height="81" fill="none" xmlns="http://www.w3.org/2000/svg"><g clip-path="url(#clip0_115_834)" fill="#fff"><path d="M58.216 51.89H22.785a2.833 2.833 0 01-2.647-1.76 2.71 2.71 0 01.644-3.012l11.865-11.506a2.898 2.898 0 014.005 0l7.28 7.06a.985.985 0 001.36 0l3.167-3.073a2.9 2.9 0 014.005 0l7.752 7.52a2.709 2.709 0 01.644 3.012 2.833 2.833 0 01-2.644 1.76zM34.649 36.702a.976.976 0 00-.68.273L22.102 48.481a.825.825 0 00-.206.936.923.923 0 00.888.575h35.43a.922.922 0 00.887-.575.825.825 0 00-.206-.936l-7.752-7.52a.986.986 0 00-1.362 0l-3.168 3.073a2.898 2.898 0 01-4.005 0l-7.277-7.06a.976.976 0 00-.683-.273zm18.507-.632a3.48 3.48 0 110-6.96 3.48 3.48 0 010 6.96zm0-5.062a1.583 1.583 0 100 3.165 1.583 1.583 0 000-3.165zm9.924 31.089a107.973 107.973 0 00-22.58-2.295c-7.479-.028-14.94.72-22.266 2.228l-.397-1.856a110.296 110.296 0 0122.663-2.27c7.722-.03 15.426.753 22.984 2.338l-.405 1.855zM81 70.875h-1.9a3.586 3.586 0 00-.94-2.265l1.463-1.21A5.417 5.417 0 0181 70.875zm-5.019-4.128a20.775 20.775 0 00-2.653-1.445l.796-1.724c1.003.456 1.971.985 2.898 1.582l-1.04 1.587zm-5.505-2.599a49.032 49.032 0 00-2.957-.944l.523-1.825a51.01 51.01 0 013.071.98l-.637 1.79zM1.898 70.875H0A5.417 5.417 0 011.375 67.4l1.464 1.21a3.586 3.586 0 00-.94 2.265zm3.12-4.128l-1.04-1.588a22.644 22.644 0 012.898-1.582l.796 1.724c-.919.417-1.805.9-2.654 1.446zm5.507-2.599l-.637-1.788a51.43 51.43 0 013.071-.981l.523 1.825c-1.04.298-2.035.615-2.957.944z"/><path d="M66.129 81a.95.95 0 01-.95-.95V44.298a.95.95 0 01.714-.92c8.764-2.252 13.209-4.817 13.209-7.623a.95.95 0 011.898 0v35.121c0 4.084-5.198 7.67-14.635 10.095a.943.943 0 01-.236.03zm.95-35.97v33.783c7.45-2.088 12.023-5.088 12.023-7.938V39.688c-2.131 2.014-6.087 3.762-12.024 5.342z"/><path d="M81 35.754h-1.898c0-2.665-4.08-5.498-10.911-7.58-7.397-2.253-17.23-3.494-27.691-3.494-10.46 0-20.294 1.24-27.69 3.494-6.832 2.082-10.912 4.915-10.912 7.58H0c0-8.12 20.592-12.973 40.5-12.973S81 27.634 81 35.754z"/><path d="M14.871 81c-.08 0-.16-.01-.236-.03C5.198 78.544 0 74.96 0 70.875V35.754a.95.95 0 011.898 0c0 2.839 4.691 5.608 13.21 7.797a.95.95 0 01.712.92v35.58a.95.95 0 01-.949.949zM1.898 39.744v31.131c0 2.85 4.574 5.85 12.024 7.938v-33.61c-5.888-1.57-9.874-3.376-12.024-5.46zM50.783 4.43a4.276 4.276 0 00-4.271 4.27v5.38a4.272 4.272 0 008.543 0V8.7a4.276 4.276 0 00-4.272-4.271zm2.373 9.65a2.373 2.373 0 01-4.746 0V8.701a2.373 2.373 0 114.746 0v5.38zM40.658 9.809a4.243 4.243 0 00-2.373.722V8.227a1.9 1.9 0 011.899-1.899h.949a1.903 1.903 0 011.79 1.266l1.79-.633a3.804 3.804 0 00-3.58-2.531h-.95a3.8 3.8 0 00-3.796 3.797v6.328h.028a4.271 4.271 0 104.243-4.746zm0 6.644a2.374 2.374 0 110-4.747 2.374 2.374 0 010 4.747zm-6.17-7.989a4.04 4.04 0 00-4.034-4.034h-.712a3.8 3.8 0 00-3.797 3.797h1.899a1.9 1.9 0 011.898-1.899h.712a2.138 2.138 0 012.136 2.136c0 1.257-1.073 1.82-2.136 1.82h-1.186v1.898h1.186a2.136 2.136 0 010 4.271h-.712a1.9 1.9 0 01-1.898-1.898v-.475h-1.899v.475a3.801 3.801 0 003.797 3.797h.712a4.033 4.033 0 002.685-7.043 3.554 3.554 0 001.35-2.845zm22.465-3.401a2.531 2.531 0 110-5.063 2.531 2.531 0 010 5.063zm0-3.165a.633.633 0 100 1.265.633.633 0 000-1.265z"/></g><defs><clipPath id="clip0_115_834"><path fill="#fff" d="M0 0h81v81H0z"/></clipPath></defs></svg>
